!!!OTL: Die Bretererzaehlung.
!!!OTL-incipit:DA UNTEN IN DER MUEHLE           
!!!COM: G. W. Fink
!!!ARE: Europa, Mitteleuropa, Deutschland
!!!SCT: F0210
!!!TXL: @@DE
!!!YEM: Copyright 1995, estate of Helmut Schaffrath.
**kern	**text
*ICvox	*
*clefG2	*
*M6/8	*
*k[b-]	*
*F:	*
!LO:TX:a:t=Ruhig und leise.	!
!LO:TX:a:t=Dreiſtimmig ohne, einſtimmig mit Begleitung.	!
!LO:TX:a:t=P:only the highest voice encoded:problem	!
{8f	1._Da
=1	=1
4f	un-
8f	-ten
4f	in
8f	der
=2	=2
8f	Mühle
8e}	.
{8f	ſaß
4g	ich
8g	in
=3	=3
[>4.g	ſü-
8gL]	.
8fJ	.
8g	-ßer
=4	=4
[>4.a	Ruh',
8a]	.
8r}	.
{8f	und
=5	=5
4f	ſah
8f	dem
4f	Räder-
8f	.
=6	=6
4.a	-ſpie-
4g}	-le,
{8g	und
=7	=7
4f	ſah
8f	den
8eL	Waſ-
8dJ	.
8e	-ſern
=8	=8
[4.f	ʒu.
8f)	.
8r;}	.
==	==
!!!AGN: Stimmungs - Lied, Todes - Ahnung
!!!ONB: ESAC (Essen Associative Code) Database: FINK
!!!AMT: compound duple
!!!AIN: vox
!!!EED: Helmut Schaffrath
!!!EEV: 1.0
!!!RDF**kern: > = above
!!!GTL: Volkslieder
!!Text: J. Kerner
!!!source: Musikalischer Hausschatz der Deutschen. Eine Sammlung von über 1000 Liedern und Gesängen mit Singstimmen und Klavierbegleitung. Leipzig, Litterarisches Verlags-Haus.
!!!page: 122
!!!URL-scan: https://www.digitale-sammlungen.de/en/view/bsb11144622?page=130,131
!!!ENC: Anna Maria Matuszewska
!!!EEV: 2024/07/29
*-	*-